symbols/web/r_mobiledata/materialsymbolsrounded/r_mobiledata_wght700grad200_24px.svg

<svg xmlns="http://www.w3.org/2000/svg" height="24" width="24"><path d="m6.325 9.525-.8-1.85H4.3v1.35q0 .575-.387.95-.388.375-.938.375-.575 0-.95-.375t-.375-.95v-5.7q0-.7.488-1.188.487-.487 1.187-.487h3.35q1.15 0 1.9.75t.75 1.9v.925q0 .75-.325 1.287-.325.538-.85.888l.575 1.3q.3.7-.012 1.175-.313.475-1.088.475-.4 0-.762-.25-.363-.25-.538-.575ZM4.3 5.025h2.375V4.3H4.3Z"/></svg>

<svg xmlns="http://www.w3.org/2000/svg" height="24" width="24"><path d="M6.325 9.525 5.525 7.675H4.3V9.025Q4.3 9.6 3.913 9.975Q3.525 10.35 2.975 10.35Q2.4 10.35 2.025 9.975Q1.65 9.6 1.65 9.025V3.325Q1.65 2.625 2.138 2.137Q2.625 1.65 3.325 1.65H6.675Q7.825 1.65 8.575 2.4Q9.325 3.15 9.325 4.3V5.225Q9.325 5.975 9 6.512Q8.675 7.05 8.15 7.4L8.725 8.7Q9.025 9.4 8.713 9.875Q8.4 10.35 7.625 10.35Q7.225 10.35 6.863 10.1Q6.5 9.85 6.325 9.525ZM4.3 5.025H6.675Q6.675 5.025 6.675 5.025Q6.675 5.025 6.675 5.025V4.3Q6.675 4.3 6.675 4.3Q6.675 4.3 6.675 4.3H4.3Z"/></svg>
